symbols/web/call_to_action/materialsymbolsrounded/call_to_action_wght600gradN25fill1_48px.svg

<svg xmlns="http://www.w3.org/2000/svg" height="48" width="48"><path d="M13.85 33.9H34.5q.75 0 1.25-.5t.5-1.25v-1.6q0-.75-.5-1.25t-1.25-.5H13.85q-.8 0-1.275.5-.475.5-.475 1.25v1.6q0 .75.475 1.25t1.275.5ZM7.4 40.5q-1.6 0-2.725-1.15t-1.125-2.7v-25.3q0-1.6 1.125-2.725T7.4 7.5h33.2q1.65 0 2.775 1.125T44.5 11.35v25.3q0 1.55-1.125 2.7Q42.25 40.5 40.6 40.5Z"/></svg>

<svg xmlns="http://www.w3.org/2000/svg" height="48" width="48"><path d="M13.85 33.9H34.5Q35.25 33.9 35.75 33.4Q36.25 32.9 36.25 32.15V30.55Q36.25 29.8 35.75 29.3Q35.25 28.8 34.5 28.8H13.85Q13.05 28.8 12.575 29.3Q12.1 29.8 12.1 30.55V32.15Q12.1 32.9 12.575 33.4Q13.05 33.9 13.85 33.9ZM7.4 40.5Q5.8 40.5 4.675 39.35Q3.55 38.2 3.55 36.65V11.35Q3.55 9.75 4.675 8.625Q5.8 7.5 7.4 7.5H40.6Q42.25 7.5 43.375 8.625Q44.5 9.75 44.5 11.35V36.65Q44.5 38.2 43.375 39.35Q42.25 40.5 40.6 40.5Z"/></svg>
